src/resources/assets/number-symbol.svg

<svg xmlns="http://www.w3.org/2000/svg" width="16" height="16"><path d="M 6.992188 2.589844 C 7.042969 2.320312 6.859375 2.058594 6.589844 2.011719 C 6.316406 1.960938 6.058594 2.140625 6.007812 2.414062 L 5.539062 5 L 3.496094 5 C 3.21875 5 2.996094 5.222656 2.996094 5.5 C 2.996094 5.777344 3.21875 6 3.496094 6 L 5.355469 6 L 4.628906 10 L 2.5 10 C 2.222656 10 2 10.222656 2 10.5 C 2 10.777344 2.222656 11 2.5 11 L 4.445312 11 L 4.007812 13.410156 C 3.957031 13.683594 4.136719 13.941406 4.410156 13.992188 C 4.679688 14.042969 4.941406 13.863281 4.992188 13.589844 L 5.460938 11 L 9.445312 11 L 9.003906 13.410156 C 8.957031 13.679688 9.136719 13.941406 9.40625 13.992188 C 9.679688 14.039062 9.941406 13.859375 9.988281 13.589844 L 10.460938 11 L 12.5 11 C 12.777344 11 13 10.777344 13 10.5 C 13 10.222656 12.777344 10 12.5 10 L 10.644531 10 L 11.371094 6 L 13.5 6 C 13.777344 6 14 5.777344 14 5.5 C 14 5.226562 13.777344 5 13.5 5 L 11.554688 5 L 11.992188 2.59375 C 12.042969 2.320312 11.863281 2.058594 11.589844 2.011719 C 11.320312 1.960938 11.058594 2.140625 11.007812 2.414062 L 10.539062 5 L 6.554688 5 Z M 6.371094 6 L 10.355469 6 L 9.625 10 L 5.644531 10 Z M 6.371094 6" fill="#ddd"/></svg>

<svg xmlns="http://www.w3.org/2000/svg" width="16" height="16"><path d="M6.992 2.59a.497.497 0 00-.402-.578.498.498 0 00-.582.402L5.539 5H3.496c-.277 0-.5.223-.5.5s.223.5.5.5h1.86l-.727 4H2.5c-.277 0-.5.223-.5.5s.223.5.5.5h1.945l-.437 2.41a.5.5 0 10.984.18L5.461 11h3.984l-.441 2.41a.506.506 0 00.402.582.502.502 0 00.582-.402l.473-2.59H12.5c.277 0 .5-.223.5-.5s-.223-.5-.5-.5h-1.855l.726-4H13.5a.501.501 0 000-1h-1.945l.437-2.406a.5.5 0 10-.984-.18L10.539 5H6.555zM6.372 6h3.983l-.73 4h-3.98zm0 0" fill="#ddd"/></svg>
